icons/evolvere-blue-folders-flat-vivid-dark-fallback/devices/64/drive-removable-media.svg

<?xml version="1.0" encoding="UTF-8" standalone="no"?>
<!-- Created with Inkscape (http://www.inkscape.org/) -->

<svg
   xmlns:dc="http://purl.org/dc/elements/1.1/"
   xmlns:cc="http://creativecommons.org/ns#"
   xmlns:rdf="http://www.w3.org/1999/02/22-rdf-syntax-ns#"
   xmlns:svg="http://www.w3.org/2000/svg"
   xmlns="http://www.w3.org/2000/svg"
   xmlns:sodipodi="http://sodipodi.sourceforge.net/DTD/sodipodi-0.dtd"
   xmlns:inkscape="http://www.inkscape.org/namespaces/inkscape"
   width="64"
   height="64"
   id="svg13094"
   version="1.1"
   inkscape:version="0.91+devel r"
   sodipodi:docname="drive-removable-media.svg">
  <sodipodi:namedview
     id="base"
     pagecolor="#ffffff"
     bordercolor="#666666"
     borderopacity="1.0"
     inkscape:pageopacity="0"
     inkscape:pageshadow="2"
     inkscape:zoom="11.313709"
     inkscape:cx="31.404368"
     inkscape:cy="32.240285"
     inkscape:document-units="px"
     inkscape:current-layer="svg13094"
     showgrid="true"
     inkscape:snap-bbox="true"
     inkscape:bbox-paths="true"
     inkscape:bbox-nodes="true"
     inkscape:snap-bbox-edge-midpoints="true"
     inkscape:snap-bbox-midpoints="true"
     inkscape:object-paths="true"
     inkscape:snap-intersection-paths="true"
     inkscape:object-nodes="true"
     inkscape:snap-smooth-nodes="true"
     inkscape:snap-midpoints="true"
     inkscape:snap-object-midpoints="true"
     inkscape:snap-center="true"
     showguides="true"
     inkscape:guide-bbox="true"
     inkscape:window-width="1920"
     inkscape:window-height="1023"
     inkscape:window-x="-10"
     inkscape:window-y="35"
     inkscape:window-maximized="1"
     inkscape:snap-global="true"
     fit-margin-top="0"
     fit-margin-left="0"
     fit-margin-right="0"
     fit-margin-bottom="0"
     showborder="true"
     inkscape:showpageshadow="false"
     inkscape:snap-page="true">
    <inkscape:grid
       type="xygrid"
       id="grid3075"
       empspacing="5"
       visible="true"
       enabled="true"
       snapvisiblegridlinesonly="true"
       originx="1.6362304e-08px"
       originy="18px" />
  </sodipodi:namedview>
  <defs
     id="defs13096" />
  <metadata
     id="metadata13099">
    <rdf:RDF>
      <cc:Work
         rdf:about="">
        <dc:format>image/svg+xml</dc:format>
        <dc:type
           rdf:resource="http://purl.org/dc/dcmitype/StillImage" />
        <dc:title></dc:title>
      </cc:Work>
    </rdf:RDF>
  </metadata>
  <path
     id="path3989"
     d="M 0,5.90625 0,57.5 0.09375,57.59375 C 0.0402232,57.753417 0,57.92673 0,58.09375 l 0,2.8125 C 0,62.611986 2.899,64 6.5,64 l 51,0 c 3.601,0 6.5,-1.388014 6.5,-3.09375 l 0,-2.8125 c 0,-0.16702 -0.04022,-0.340333 -0.09375,-0.5 L 64,57.5 64,5.90625 l -64,0 z"
     style="color:#000000;display:inline;overflow:visible;visibility:visible;fill:#43556a;fill-opacity:1;fill-rule:nonzero;stroke:none;stroke-width:2.28571415;marker:none;enable-background:accumulate"
     inkscape:connector-curvature="0" />
  <path
     inkscape:connector-curvature="0"
     style="fill:#1f0700;fill-opacity:0.06978802;fill-rule:nonzero"
     d="M 6.5,0 C 4.5972927,0 2.9053782,0.38675065 1.71875,1 L 32,1 62.28125,1 C 61.094622,0.38675065 59.402707,0 57.5,0 L 32,0 6.5,0 Z"
     id="path4444" />
  <path
     inkscape:connector-curvature="0"
     id="path4019"
     d="m 6.5,0 51,0 C 61.101,0 64,1.3732106 64,3.0789476 l 0,2.842105 C 64,7.6267895 61.101,9 57.5,9 L 6.5,9 C 2.899,9 1.6362304e-8,7.6267895 1.6362304e-8,5.9210526 l 0,-2.842105 C 1.6362304e-8,1.3732106 2.899,0 6.5,0 Z"
     style="color:#000000;display:inline;overflow:visible;visibility:visible;fill:#94a7bc;fill-opacity:1;fill-rule:nonzero;stroke:none;stroke-width:0.62299293;marker:none;enable-background:accumulate" />
  <path
     inkscape:connector-curvature="0"
     id="path3919"
     d="m 7,2.3684211 50,0 c 1.108,0 2,0.4225263 2,0.9473684 l 0,2.368421 c 0,0.5248421 -0.892,0.9473684 -2,0.9473684 l -50,0 c -1.108,0 -2,-0.4225263 -2,-0.9473684 L 5,3.3157895 C 5,2.7909474 5.892,2.3684211 7,2.3684211 Z"
     style="color:#000000;display:inline;overflow:visible;visibility:visible;opacity:1;fill:#43556a;fill-opacity:1;fill-rule:nonzero;stroke:none;stroke-width:2.28571415;stroke-linecap:butt;stroke-linejoin:miter;stroke-miterlimit:4;stroke-dasharray:none;stroke-dashoffset:0;stroke-opacity:1;marker:none;enable-background:accumulate" />
  <path
     inkscape:connector-curvature="0"
     style="color:#000000;display:inline;overflow:visible;visibility:visible;fill:#3bcfff;fill-opacity:1;fill-rule:nonzero;stroke:none;stroke-width:0.76123381;marker:none;enable-background:accumulate"
     d="m 23,5 -1,1 0,0.6308594 20,0 L 42,6 41,5 23,5 Z"
     id="path4321" />
  <rect
     ry="0"
     rx="0"
     y="9"
     x="52"
     height="55"
     width="2"
     id="rect3950"
     style="color:#000000;display:inline;overflow:visible;visibility:visible;fill:#162f4d;fill-opacity:0.35241502;fill-rule:nonzero;stroke:none;stroke-width:0.62299293;marker:none;enable-background:accumulate" />
  <rect
     ry="0"
     rx="0"
     y="9"
     x="10"
     height="55"
     width="2"
     id="rect3985"
     style="color:#000000;display:inline;overflow:visible;visibility:visible;fill:#779dc9;fill-opacity:0.23076926;fill-rule:nonzero;stroke:none;stroke-width:0.62299293;marker:none;enable-background:accumulate" />
  <path
     style="color:#000000;fill:#b6cfed;fill-opacity:0.60107332;fill-rule:nonzero;stroke:none;stroke-width:0.62299293;marker:none;visibility:visible;display:inline;overflow:visible;enable-background:accumulate;opacity:1;stroke-linecap:butt;stroke-linejoin:miter;stroke-miterlimit:4;stroke-dasharray:none;stroke-dashoffset:0;stroke-opacity:1"
     d="m 32,24.953125 -10,13 20,0 z m -8,16 0,4 16,0 0,-4 z"
     id="path3834"
     inkscape:connector-curvature="0"
     sodipodi:nodetypes="ccccccccc" />
</svg>

<svg xmlns="http://www.w3.org/2000/svg" viewBox="0 0 64 64"><path d="m0 5.906v51.594l.094.094c-.054.16-.094.333-.094.5v2.813c0 1.706 2.899 3.094 6.5 3.094h51c3.601 0 6.5-1.388 6.5-3.094v-2.813c0-.167-.04-.34-.094-.5l.094-.094v-51.594h-64" fill="#43556a" color="#000"/><path d="m6.5 0c-1.903 0-3.595.387-4.781 1h30.28 30.28c-1.187-.613-2.879-1-4.781-1h-25.5-25.5" fill="#1f0700" fill-opacity=".07"/><g color="#000"><path d="m6.5 0h51c3.601 0 6.5 1.373 6.5 3.079v2.842c0 1.706-2.899 3.079-6.5 3.079h-51c-3.601 0-6.5-1.373-6.5-3.079v-2.842c0-1.706 2.899-3.079 6.5-3.079" fill="#94a7bc"/><path d="m7 2.368h50c1.108 0 2 .423 2 .947v2.368c0 .525-.892.947-2 .947h-50c-1.108 0-2-.423-2-.947v-2.368c0-.525.892-.947 2-.947" fill="#43556a"/><path d="m23 5l-1 1v.631h20v-.631l-1-1h-18" fill="#3bcfff"/><path fill="#162f4d" fill-opacity=".352" d="m52 9h2v55h-2z"/><path fill="#779dc9" fill-opacity=".231" d="m10 9h2v55h-2z"/><path d="m32 24.953l-10 13h20zm-8 16v4h16v-4z" fill-opacity=".601" fill="#b6cfed"/></g></svg>
